X:0143
M:6/8
L:1/8
Q:3/8=120
K:D
  d2e f2d|g2e f2d| fga gec|d3 d2:|
g|fed c2B|ABA A2g|!fed c2A|B3 g3 |
  fed c2B|ABA A2g| fga gec|d3 d2:|

